projects/flag-game/flags/Switzerland.svg

<?xml version="1.0" encoding="UTF-8"?>
<svg xmlns="http://www.w3.org/2000/svg" xmlns:xlink="http://www.w3.org/1999/xlink" viewBox="0 0 1000 1000" version="1.1">
<g id="surface1150">
<rect x="0" y="0" width="1000" height="1000" style="fill:rgb(99.998474%,0%,0%);fill-opacity:1;stroke:none;"/>
<path style=" stroke:none;fill-rule:evenodd;fill:rgb(99.998474%,99.998474%,99.998474%);fill-opacity:1;" d="M 187.5 406.25 L 812.5 406.25 L 812.5 593.75 L 187.5 593.75 Z M 187.5 406.25 "/>
<path style=" stroke:none;fill-rule:evenodd;fill:rgb(99.998474%,99.998474%,99.998474%);fill-opacity:1;" d="M 406.25 187.5 L 593.75 187.5 L 593.75 812.5 L 406.25 812.5 Z M 406.25 187.5 "/>
</g>
</svg>

<svg viewBox="0 0 1000 1000" xmlns="http://www.w3.org/2000/svg"><path d="m0 0h1000v1000h-1000z" fill="#f00"/><g fill="#fff" fill-rule="evenodd"><path d="m187.5 406.25h625v187.5h-625zm0 0"/><path d="m406.25 187.5h187.5v625h-187.5zm0 0"/></g></svg>
